X: 27373
T: Mo Ceol Sibh A Laochra
R: polka
M: 2/4
K: Adorian
EA- AB|c2 BA|BG- GB|dB AG|
EA AB|c>B ce|dB gB|A2- A:|
ea ag|a>g ef|g>a ge|dB Gd|
ea- ag|a>g ef|g>e dB|A2 A/B/A/G/|
ea a^g|a>g ef|g>a ge|d/c/B/A/ Gd|
e>^d ef|g>a ge|dB gB|A2- A||

